X:1
T:Nathaniel Gow's Compliments to Mr. Geo. Grant
T:Nathaniel Gow's Compliments to Mr. Geo. Grant
T:Nathaniel Gow (1763-1831)
C:Nathaniel Gow (1763-1831)
L:1/8
M:4/4
K:D
V:1 treble 
V:1
 B | A>DF>D F/G/A TE2 | ADFD AF d(f | e>)c dF G/A/B TE2 | ADFA dF A f/(g/ | a>)e f>c dF TE2 | %6
 ADFD AF d(f | e>)c dF G/A/B TE2 | ADFA dF Af |: dafa g<b e2 | dafa dafd | e>c dF G<B TE2 | %12
 ADFA dF A<f :: FdBd Fd E2 | FdBd AdFd | FdBd Fd E2 |1 Fd f>d e>c dA :|2 Fd f>d e>c df || %18
 (af)(af) g<b e2 | (af)(af) (af)(gb) | (af)(af) g<b e2 | f>d{f} ed/c/ d>F D f/g/ | %22
 (af)(af) g<b e2 | (af)(af) (ge)(fd) | e(c d)F G<B TE2 | ADFA dF A<f || %26

